X: 16
T: Grimaldi's Whim
M: 6/8
L: 1/8
R: Jig
B: Goulding & Co. - Twenty Four Country Dances for the Year 1808 (London) p.8 #2
F: http://petrucci.mus.auth.gr/imglnks/usimg/7/7e/IMSLP351864-PMLP71783-goulding_24_dances_1808.pdf
Z: Transcribed and edited by Flynn Titford-Mock
Z: ABC's: AK/Fiddler's Companion
Z: Dance added 2015 by John Chambers  <jc:trillian.mit.edu>
N: The 2nd strain has initial repeat but no final repeat; not fixed.
K: Bb
% - - - - - - - - - - - - - - - - - - - - - - - - - - - - -
F |\
BcB Bdf | gec cde | fdB BAB | cAF F2F |\
BcB Bdf | gec cgb | agf cf=e | fcA F2 :|!
|: f |\
gec cdc | fdB BcB | cde dcB | AcA F2E |\
DFB EGB | DFB EGB | Ged cBA | BFD B,2 |]
% - - - - - - - - - - Dance description - - - - - - - - - -
%%begintext align
%% Set & hands 3 round & back again lead down
%% the middle up again, & Allemande.
%%endtext
